src/assets/heavy-equipment-icon.svg

<svg width="633" height="633" fill="none" xmlns="http://www.w3.org/2000/svg"><circle cx="316.5" cy="316.5" r="316.5" fill="url(#paint0_linear_1061_1980)"/><path d="M448.585 346.099c-5.971 0 1.492 3.762-42.632-25.675a17.315 17.315 0 00-4.299-17.912c-8.18-8.001-6.807-5.493-6.807-10.15h5.971a5.974 5.974 0 005.971-5.971v-23.884a5.971 5.971 0 00-5.971-5.97h-5.971v-11.106l17.913-.836a5.971 5.971 0 005.971-5.971v-36.243c-.418-5.971 5.135-2.747-135.718-41.139-1.612-.239-48.244-.239-49.856-.239-1.612 0 0-.955-50.454 30.631a6.926 6.926 0 00-2.448 3.224c-.358 1.97-.358 50.095.12 52.006 2.03 4.956 2.328 3.702 47.289 3.702v161.212a17.913 17.913 0 00-17.913 17.913v11.941a5.968 5.968 0 005.971 5.971h83.592a5.971 5.971 0 005.971-5.971v-11.941a17.913 17.913 0 00-17.913-17.913V250.566l95.534-4.359v10.33h-5.971a5.971 5.971 0 00-5.971 5.97v23.884a5.971 5.971 0 005.971 5.971h5.971c0 10.449-1.254 7.165 10.329 18.748.417.461.76.985 1.015 1.552-5.374-3.582-5.971-3.104-11.344.359v-2.747a5.974 5.974 0 00-5.971-5.971 5.968 5.968 0 00-5.971 5.971 28.578 28.578 0 00.896 10.15c-44.244 29.496-36.721 25.675-42.692 25.675a5.97 5.97 0 00-5.971 5.971v71.65a5.97 5.97 0 005.971 5.971h119.417a5.971 5.971 0 005.971-5.971v-71.65a5.97 5.97 0 00-5.971-5.971zm-41.796-113.446l-28.959 1.314c29.855-29.854 24.6-25.914 28.959-25.675v24.361zm-179.125-41.796h-20.958l20.958-13.136v13.136zm-35.825 11.942h27.406l-27.406 27.406v-27.406zm47.766 26.331l33.377 33.377-33.377 33.377V229.13zm2.449 81.144l33.377-33.377v66.754l-33.377-33.377zm30.928 47.767l-33.377 33.377v-66.754l33.377 33.377zm-30.928-143.3l33.377-33.377v66.754l-33.377-33.377zm45.318-11.643l25.914 1.134-25.914 25.973v-27.107zm0-11.942v-16.36l71.65 19.584-71.65-3.224zm100.191 16.479l-22.57 22.57-24.719-24.719 47.289 2.149zm-61.38.597l26.868 27.108-56.782 2.567 29.914-29.675zm-86.578-35.287h27.407l-27.407 27.406v-27.406zm-39.347 65.679l27.406-27.406v27.406h-27.406zm93.085 191.067v5.971h-71.65v-5.971a5.97 5.97 0 015.971-5.971h59.708a5.97 5.97 0 015.971 5.971zm-53.738-17.913c0-4.896-5.254 1.732 35.826-39.348v39.348h-35.826zm143.301-143.3h11.941v11.942h-11.941v-11.942zm-3.702 61.38a17.909 17.909 0 0019.345 0l24.361 16.241h-68.067l24.361-16.241zm63.41 87.891H335.139v-59.708h107.475v59.708z" fill="#fff"/><path d="M347.081 375.953v23.883a5.968 5.968 0 005.971 5.971 5.971 5.971 0 005.971-5.971v-23.883a5.97 5.97 0 00-10.193-4.222 5.97 5.97 0 00-1.749 4.222zm23.883 0v23.883a5.968 5.968 0 005.971 5.971 5.968 5.968 0 005.971-5.971v-23.883a5.97 5.97 0 00-10.193-4.222 5.97 5.97 0 00-1.749 4.222zm23.884 0v23.883a5.968 5.968 0 005.971 5.971 5.971 5.971 0 005.97-5.971v-23.883a5.973 5.973 0 00-5.97-5.971 5.968 5.968 0 00-5.971 5.971zm23.883 0v23.883a5.968 5.968 0 005.971 5.971 5.971 5.971 0 005.971-5.971v-23.883a5.97 5.97 0 00-10.193-4.222 5.97 5.97 0 00-1.749 4.222z" fill="#fff"/><defs><linearGradient id="paint0_linear_1061_1980" x1="-68.487" y1="381.809" x2="701.487" y2="388.191" gradientUnits="userSpaceOnUse"><stop stop-color="#024EC9"/><stop offset="1" stop-color="#3884FF"/></linearGradient></defs></svg>

<svg width="633" height="633" viewBox="0 0 633 633" fill="none" xmlns="http://www.w3.org/2000/svg">
<circle cx="316.5" cy="316.5" r="316.5" fill="url(#paint0_linear_1061_1980)"/>
<path d="M448.585 346.099C442.614 346.099 450.077 349.861 405.953 320.424C406.995 317.337 407.144 314.018 406.383 310.849C405.623 307.68 403.983 304.791 401.654 302.512C393.474 294.511 394.847 297.019 394.847 292.362H400.818C402.402 292.362 403.92 291.732 405.04 290.613C406.16 289.493 406.789 287.974 406.789 286.391V262.507C406.789 260.924 406.16 259.405 405.04 258.285C403.92 257.166 402.402 256.537 400.818 256.537H394.847V245.431L412.76 244.595C414.343 244.595 415.862 243.966 416.982 242.846C418.102 241.726 418.731 240.208 418.731 238.624C418.731 195.873 418.731 203.754 418.731 202.381C418.313 196.41 423.866 199.634 283.013 161.242C281.401 161.003 234.769 161.003 233.157 161.003C231.545 161.003 233.157 160.048 182.703 191.634C181.585 192.44 180.732 193.563 180.255 194.858C179.897 196.828 179.897 244.953 180.375 246.864C182.405 251.82 182.703 250.566 227.664 250.566V411.778C222.913 411.778 218.357 413.665 214.998 417.025C211.639 420.384 209.751 424.94 209.751 429.691V441.632C209.751 443.216 210.38 444.735 211.5 445.854C212.62 446.974 214.139 447.603 215.722 447.603H299.314C300.897 447.603 302.416 446.974 303.536 445.854C304.656 444.735 305.285 443.216 305.285 441.632V429.691C305.285 424.94 303.397 420.384 300.038 417.025C296.679 413.665 292.123 411.778 287.372 411.778V250.566L382.906 246.207V256.537H376.935C375.351 256.537 373.832 257.166 372.713 258.285C371.593 259.405 370.964 260.924 370.964 262.507V286.391C370.964 287.974 371.593 289.493 372.713 290.613C373.832 291.732 375.351 292.362 376.935 292.362H382.906C382.906 302.811 381.652 299.527 393.235 311.11C393.652 311.571 393.995 312.095 394.25 312.662C388.876 309.08 388.279 309.558 382.906 313.021V310.274C382.906 308.69 382.276 307.172 381.157 306.052C380.037 304.932 378.518 304.303 376.935 304.303C375.351 304.303 373.832 304.932 372.713 306.052C371.593 307.172 370.964 308.69 370.964 310.274C370.652 313.684 370.956 317.122 371.86 320.424C327.616 349.92 335.139 346.099 329.168 346.099C327.584 346.099 326.066 346.728 324.946 347.848C323.826 348.968 323.197 350.486 323.197 352.07V423.72C323.197 425.304 323.826 426.822 324.946 427.942C326.066 429.062 327.584 429.691 329.168 429.691H448.585C450.168 429.691 451.687 429.062 452.807 427.942C453.927 426.822 454.556 425.304 454.556 423.72V352.07C454.556 350.486 453.927 348.968 452.807 347.848C451.687 346.728 450.168 346.099 448.585 346.099ZM406.789 232.653L377.83 233.967C407.685 204.113 402.43 208.053 406.789 208.292V232.653ZM227.664 190.857H206.706L227.664 177.721V190.857ZM191.839 202.799H219.245L191.839 230.205V202.799ZM239.605 229.13L272.982 262.507L239.605 295.884V229.13ZM242.054 310.274L275.431 276.897V343.651L242.054 310.274ZM272.982 358.041L239.605 391.418V324.664L272.982 358.041ZM242.054 214.741L275.431 181.364V248.118L242.054 214.741ZM287.372 203.098L313.286 204.232L287.372 230.205V203.098ZM287.372 191.156V174.796L359.022 194.38L287.372 191.156ZM387.563 207.635L364.993 230.205L340.274 205.486L387.563 207.635ZM326.183 208.232L353.051 235.34L296.269 237.907L326.183 208.232ZM239.605 172.945H267.012L239.605 200.351V172.945ZM200.258 238.624L227.664 211.218V238.624H200.258ZM293.343 429.691V435.662H221.693V429.691C221.693 428.107 222.322 426.589 223.442 425.469C224.562 424.349 226.08 423.72 227.664 423.72H287.372C288.956 423.72 290.474 424.349 291.594 425.469C292.714 426.589 293.343 428.107 293.343 429.691ZM239.605 411.778C239.605 406.882 234.351 413.51 275.431 372.43V411.778H239.605ZM382.906 268.478H394.847V280.42H382.906V268.478ZM379.204 329.858C382.09 331.71 385.447 332.695 388.876 332.695C392.306 332.695 395.663 331.71 398.549 329.858L422.91 346.099H354.843L379.204 329.858ZM442.614 417.749H335.139V358.041H442.614V417.749Z" fill="white"/>
<path d="M347.081 375.953V399.836C347.081 401.42 347.71 402.939 348.83 404.058C349.95 405.178 351.468 405.807 353.052 405.807C354.635 405.807 356.154 405.178 357.274 404.058C358.394 402.939 359.023 401.42 359.023 399.836V375.953C359.023 374.369 358.394 372.851 357.274 371.731C356.154 370.611 354.635 369.982 353.052 369.982C351.468 369.982 349.95 370.611 348.83 371.731C347.71 372.851 347.081 374.369 347.081 375.953ZM370.964 375.953V399.836C370.964 401.42 371.593 402.939 372.713 404.058C373.833 405.178 375.352 405.807 376.935 405.807C378.519 405.807 380.038 405.178 381.157 404.058C382.277 402.939 382.906 401.42 382.906 399.836V375.953C382.906 374.369 382.277 372.851 381.157 371.731C380.038 370.611 378.519 369.982 376.935 369.982C375.352 369.982 373.833 370.611 372.713 371.731C371.593 372.851 370.964 374.369 370.964 375.953ZM394.848 375.953V399.836C394.848 401.42 395.477 402.939 396.597 404.058C397.716 405.178 399.235 405.807 400.819 405.807C402.402 405.807 403.921 405.178 405.041 404.058C406.16 402.939 406.789 401.42 406.789 399.836V375.953C406.789 374.369 406.16 372.851 405.041 371.731C403.921 370.611 402.402 369.982 400.819 369.982C399.235 369.982 397.716 370.611 396.597 371.731C395.477 372.851 394.848 374.369 394.848 375.953ZM418.731 375.953V399.836C418.731 401.42 419.36 402.939 420.48 404.058C421.6 405.178 423.118 405.807 424.702 405.807C426.285 405.807 427.804 405.178 428.924 404.058C430.044 402.939 430.673 401.42 430.673 399.836V375.953C430.673 374.369 430.044 372.851 428.924 371.731C427.804 370.611 426.285 369.982 424.702 369.982C423.118 369.982 421.6 370.611 420.48 371.731C419.36 372.851 418.731 374.369 418.731 375.953Z" fill="white"/>
<defs>
<linearGradient id="paint0_linear_1061_1980" x1="-68.4868" y1="381.809" x2="701.487" y2="388.191" gradientUnits="userSpaceOnUse">
<stop stop-color="#024EC9"/>
<stop offset="1" stop-color="#3884FF"/>
</linearGradient>
</defs>
</svg>
